svg/未标题-1_画板-1-1.svg

<svg width="16" height="22" viewBox="0 0 16 22" fill="none" xmlns="http://www.w3.org/2000/svg">
<rect width="16" height="22" fill="#F5F5F5"/>
<rect width="793" height="822" transform="translate(-470.736 -50.7648)" fill="white"/>
<path d="M9.85974 7.45802C10.0276 7.61543 10.193 7.77555 10.3685 7.92754C10.661 8.19894 10.9586 8.44591 11.2537 8.70645C11.7879 9.1814 12.3348 9.64006 12.8842 10.096C13.1747 10.3069 13.3863 10.6201 13.482 10.9808C13.544 11.2604 13.5394 11.5521 13.4688 11.8294C13.3981 12.1067 13.2636 12.3608 13.0775 12.5684C12.8664 12.8398 12.6273 13.0705 12.4009 13.3202L12.3424 13.3962L10.9383 14.878C10.9103 14.9079 10.8721 14.9378 10.895 14.9839C10.9179 15.03 10.9637 15.0273 11.007 15.03C11.419 15.03 11.8311 15.03 12.2406 15.03C12.3093 15.03 12.4085 14.9893 12.4365 15.087C12.4645 15.1847 12.3627 15.2037 12.3093 15.2444L5.7237 20.401C5.678 20.4392 5.62853 20.472 5.57616 20.4987C5.49476 20.5367 5.43626 20.4824 5.45915 20.3874C5.47666 20.3329 5.50059 20.2809 5.53038 20.2327L7.56533 16.6177C7.58823 16.5743 7.6391 16.5309 7.60858 16.4739C7.57805 16.4169 7.51191 16.4304 7.46104 16.4304H6.08236C5.90939 16.4304 5.89158 16.3979 5.97552 16.2432L6.95485 14.452C6.96229 14.4373 6.96826 14.4218 6.97265 14.4058C6.98712 14.3211 7.01463 14.2394 7.05405 14.1643C7.09984 14.091 7.07694 14.0584 6.99809 14.0584C6.84292 14.0584 6.6903 14.0584 6.53514 14.034C5.67258 13.9854 4.8499 13.6311 4.19748 13.0271C3.74025 12.6319 3.38339 12.1205 3.15965 11.5398C3.1262 11.4526 3.1023 11.3615 3.08843 11.2685C3.07307 11.2196 3.07109 11.167 3.0827 11.117C3.09432 11.0669 3.11905 11.0215 3.15401 10.9859C3.18897 10.9503 3.23271 10.926 3.28011 10.916C3.32751 10.906 3.3766 10.9105 3.42165 10.9292C3.53327 10.9616 3.64286 11.0015 3.74979 11.0486C4.41022 11.3019 5.09155 11.4882 5.78475 11.605C6.23318 11.6906 6.68754 11.736 7.14308 11.7407C6.82512 11.6918 6.47663 11.6403 6.1256 11.567C5.53371 11.4498 4.95305 11.2754 4.3908 11.0459C3.78768 10.783 3.25469 10.3654 2.83915 9.83004C2.50235 9.41182 2.23794 8.93304 2.05823 8.41606C1.98631 8.16833 1.92771 7.91642 1.88272 7.66157C1.82325 7.28227 1.81128 6.89622 1.84711 6.51355C1.8461 6.4524 1.86166 6.39223 1.89193 6.34029C1.92221 6.28834 1.96589 6.24684 2.01775 6.22075C2.0696 6.19466 2.12741 6.18511 2.18423 6.19324C2.24105 6.20137 2.29446 6.22684 2.33804 6.26658C2.49342 6.37478 2.64211 6.49354 2.78319 6.62211C4.31419 7.80552 5.97477 8.78526 7.72813 9.53964C7.34912 9.34424 6.77933 9.03213 6.21717 8.70374C5.44124 8.24936 4.69964 7.73123 3.99907 7.15405C3.83964 7.03286 3.69295 6.89364 3.56156 6.73881C3.53029 6.68876 3.48957 6.64624 3.442 6.61397L3.41911 6.58412C3.11173 6.27452 2.85395 5.9133 2.656 5.51481C2.30862 4.87361 2.10984 4.15315 2.07621 3.4134C2.04258 2.67366 2.17508 1.93605 2.46268 1.262C2.47848 1.19252 2.5122 1.12915 2.56003 1.07908C2.60785 1.02901 2.66787 0.994231 2.73328 0.978692C2.79868 0.963153 2.86686 0.967473 2.93008 0.991164C2.9933 1.01485 3.04904 1.05697 3.09097 1.11273C3.30464 1.31085 3.51323 1.5144 3.7269 1.71252L3.92022 1.88893C4.22292 2.17118 4.52307 2.47243 4.8334 2.76012C6.02046 3.87647 7.20752 4.9901 8.39458 6.10103C8.86516 6.55969 9.35355 7.01835 9.85974 7.45802Z" stroke="#A3A3A3" stroke-width="1.0224" stroke-linecap="round" stroke-linejoin="round"/>
</svg>

<svg fill="none" viewBox="0 0 16 22"><path fill="#F5F5F5" d="M0 0h16v22H0z"/><path fill="white" d="M-470.736-50.765h793v822h-793z"/><path stroke="#A3A3A3" strokeLinecap="round" strokeLinejoin="round" strokeWidth="1.022" d="M9.86 7.458c.168.157.333.318.508.47.293.27.59.518.886.778.534.475 1.08.934 1.63 1.39.29.21.502.524.598.885.062.28.057.571-.013.848-.07.278-.205.532-.391.74-.212.27-.45.501-.677.751l-.059.076-1.404 1.482c-.028.03-.066.06-.043.106s.069.043.112.046h1.234c.068 0 .168-.04.196.057.027.098-.074.117-.128.157l-6.585 5.157a.8.8 0 0 1-.148.098c-.081.038-.14-.017-.117-.112a.7.7 0 0 1 .071-.154l2.035-3.615c.023-.044.074-.087.044-.144s-.097-.044-.148-.044H6.082c-.173 0-.19-.032-.106-.187l.979-1.791a.3.3 0 0 0 .018-.046.8.8 0 0 1 .081-.242c.046-.073.023-.106-.056-.106-.155 0-.308 0-.463-.024a3.75 3.75 0 0 1-2.338-1.007A3.74 3.74 0 0 1 3.16 11.54a1.3 1.3 0 0 1-.072-.271.29.29 0 0 1 .066-.283.24.24 0 0 1 .268-.057q.166.049.328.12a10.6 10.6 0 0 0 2.035.556q.674.129 1.358.136c-.318-.05-.666-.1-1.017-.174a9.4 9.4 0 0 1-1.735-.521A4 4 0 0 1 2.839 9.83a4.7 4.7 0 0 1-.78-1.414 7 7 0 0 1-.176-.754 4.6 4.6 0 0 1-.036-1.148.33.33 0 0 1 .045-.174.3.3 0 0 1 .126-.12.28.28 0 0 1 .32.047q.233.162.445.355A22.9 22.9 0 0 0 7.728 9.54a36 36 0 0 1-1.51-.836 17 17 0 0 1-2.219-1.55 2.8 2.8 0 0 1-.437-.415.4.4 0 0 0-.12-.125l-.023-.03a4.1 4.1 0 0 1-.763-1.07 4.92 4.92 0 0 1-.193-4.253.4.4 0 0 1 .097-.182.35.35 0 0 1 .173-.1.34.34 0 0 1 .197.012.36.36 0 0 1 .161.122c.214.198.422.401.636.6l.193.176c.303.282.603.583.913.871q1.781 1.674 3.562 3.341c.47.459.959.917 1.465 1.357"/></svg>
